icons/arrow-circle-topright.svg

<svg width="24" height="24" viewBox="0 0 24 24" fill="none" xmlns="http://www.w3.org/2000/svg">
<path fill-rule="evenodd" clip-rule="evenodd" d="M12 3.75C7.44365 3.75 3.75 7.44365 3.75 12C3.75 16.5563 7.44365 20.25 12 20.25C16.5563 20.25 20.25 16.5563 20.25 12C20.25 7.44365 16.5563 3.75 12 3.75ZM2.25 12C2.25 6.61522 6.61522 2.25 12 2.25C17.3848 2.25 21.75 6.61522 21.75 12C21.75 17.3848 17.3848 21.75 12 21.75C6.61522 21.75 2.25 17.3848 2.25 12Z" fill="black"/>
<path fill-rule="evenodd" clip-rule="evenodd" d="M9.54962 14.8376C9.25672 14.5447 9.25672 14.0698 9.54962 13.7769L14.2165 9.11002C14.5094 8.81712 14.9843 8.81712 15.2772 9.11002C15.5701 9.40291 15.5701 9.87778 15.2772 10.1707L10.6103 14.8376C10.3174 15.1305 9.84251 15.1305 9.54962 14.8376Z" fill="black"/>
<path fill-rule="evenodd" clip-rule="evenodd" d="M10.037 9.35742C10.037 8.94321 10.3728 8.60742 10.787 8.60742L14.3226 8.60742C15.0196 8.60742 15.5675 9.15534 15.5675 9.8524L15.5675 13.3879C15.5675 13.8021 15.2318 14.1379 14.8175 14.1379C14.4033 14.1379 14.0675 13.8021 14.0675 13.3879L14.0675 10.1074L10.787 10.1074C10.3728 10.1074 10.037 9.77164 10.037 9.35742Z" fill="black"/>
</svg>

<svg xmlns="http://www.w3.org/2000/svg" fill="none" viewBox="0 0 24 24">
  <path fill="#000" fill-rule="evenodd" d="M12 3.75a8.25 8.25 0 1 0 0 16.5 8.25 8.25 0 0 0 0-16.5ZM2.25 12c0-5.385 4.365-9.75 9.75-9.75s9.75 4.365 9.75 9.75-4.365 9.75-9.75 9.75S2.25 17.385 2.25 12Z" clip-rule="evenodd"/>
  <path fill="#000" fill-rule="evenodd" d="M9.55 14.838a.75.75 0 0 1 0-1.061l4.666-4.667a.75.75 0 0 1 1.061 1.06l-4.667 4.668a.75.75 0 0 1-1.06 0Z" clip-rule="evenodd"/>
  <path fill="#000" fill-rule="evenodd" d="M10.037 9.357a.75.75 0 0 1 .75-.75h3.536c.697 0 1.245.548 1.245 1.245v3.536a.75.75 0 1 1-1.5 0v-3.28h-3.281a.75.75 0 0 1-.75-.75Z" clip-rule="evenodd"/>
</svg>
